symbolic/32x32/apps/kalarm.svg

<svg xmlns="http://www.w3.org/2000/svg" width="32" height="32" version="1">
 <path fill="#4f4f4f" d="m11.257 22.079c-0.74997-0.03976-1.61 0.3043-2.2955 0.98984l-2.9695 2.9695c-1.0969 1.0969-1.3176 2.6418-0.49492 3.4645 0.82265 0.82265 2.3676 0.60194 3.4645-0.49492l2.9695-2.9695c1.0969-1.0969 1.3176-2.6418 0.49492-3.4645-0.30849-0.30849-0.71896-0.47106-1.1689-0.49492zm9.4076 0c-0.44998 0.02386-0.85908 0.18643-1.1676 0.49492-0.82265 0.82265-0.60194 2.3676 0.49492 3.4645l2.9695 2.9695c1.0969 1.0969 2.6418 1.3176 3.4645 0.49492 0.82265-0.82265 0.60194-2.3676-0.49492-3.4645l-2.9695-2.9695c-0.68554-0.68554-1.5469-1.0296-2.2969-0.98984z"/>
 <path style="fill:#c03120" d="m5 2a5 5 0 0 0 -5 5 5 5 0 0 0 5 5 5 5 0 0 0 5 -5 5 5 0 0 0 -5 -5zm22 0a5 5 0 0 0 -5 5 5 5 0 0 0 5 5 5 5 0 0 0 5 -5 5 5 0 0 0 -5 -5z"/>
 <path fill="#fff" style="opacity:0.1" d="m5 2a5 5 0 0 0 -5 5 5 5 0 0 0 0.027344 0.5156 5 5 0 0 1 4.9727 -4.5156 5 5 0 0 1 4.9727 4.4844 5 5 0 0 0 0.0273 -0.4844 5 5 0 0 0 -5 -5zm22 0a5 5 0 0 0 -5 5 5 5 0 0 0 0.027 0.5156 5 5 0 0 1 4.973 -4.5156 5 5 0 0 1 4.973 4.4844 5 5 0 0 0 0.027 -0.4844 5 5 0 0 0 -5 -5z"/>
 <path opacity=".2" d="m12.859 24.369c-0.119 0.576-0.427 1.17-0.927 1.67l-2.9711 2.969c-1.0968 1.097-2.6402 1.317-3.4629 0.494-0.2204-0.22-0.3597-0.493-0.4335-0.795-0.1428 0.686-0.0138 1.348 0.4335 1.795 0.8227 0.823 2.3661 0.603 3.4629-0.494l2.9711-2.971c0.803-0.803 1.129-1.844 0.927-2.668zm6.205 0c-0.201 0.824 0.125 1.865 0.928 2.668l2.969 2.971c1.097 1.097 2.642 1.317 3.465 0.494 0.447-0.447 0.576-1.109 0.433-1.795-0.073 0.302-0.213 0.575-0.433 0.795-0.823 0.823-2.368 0.603-3.465-0.494l-2.969-2.969c-0.5-0.5-0.808-1.094-0.928-1.67z"/>
 <rect fill="#e74c3c" width="28" height="28" x="2" y="2" rx="14" ry="14"/>
 <rect style="opacity:0.2" width="24" height="24" x="-29" y="-28" rx="12" ry="12" transform="matrix(0,-1,-1,0,0,0)"/>
 <path style="opacity:0.2;fill:#ffffff" d="m16 2c-7.756 0-14 6.244-14 14 0 0.169 0.0195 0.333 0.0254 0.5 0.2637-7.5206 6.3874-13.5 13.975-13.5 7.587 0 13.711 5.9794 13.975 13.5 0.005-0.167 0.025-0.331 0.025-0.5 0-7.756-6.244-14-14-14z"/>
 <rect style="fill:#f8cac5" width="24" height="24" x="-28" y="-28" rx="12" ry="12" transform="matrix(0,-1,-1,0,0,0)"/>
 <path style="opacity:0.7" d="M 16 6 A 1 1 0 0 0 15 7 A 1 1 0 0 0 16 8 A 1 1 0 0 0 17 7 A 1 1 0 0 0 16 6 z M 21.689453 11.005859 C 21.596517 11.017359 21.504446 11.046456 21.417969 11.095703 L 15.427734 14.507812 C 14.610364 14.909292 14.299559 15.960559 14.630859 16.568359 L 16.808594 20.289062 C 17.207644 20.970823 18.085544 21.202564 18.777344 20.808594 C 19.469154 20.414614 19.705691 19.548988 19.306641 18.867188 L 17.144531 15.171875 L 22.138672 12.328125 C 22.484572 12.131135 22.601974 11.696529 22.402344 11.355469 C 22.252621 11.099674 21.968261 10.971361 21.689453 11.005859 z M 7 15 A 1 1 0 0 0 6 16 A 1 1 0 0 0 7 17 A 1 1 0 0 0 8 16 A 1 1 0 0 0 7 15 z M 25 15 A 1 1 0 0 0 24 16 A 1 1 0 0 0 25 17 A 1 1 0 0 0 26 16 A 1 1 0 0 0 25 15 z M 16 24 A 1 1 0 0 0 15 25 A 1 1 0 0 0 16 26 A 1 1 0 0 0 17 25 A 1 1 0 0 0 16 24 z"/>
 <path opacity=".2" d="m2.0254 16.5c-0.0059 0.167-0.0254 0.331-0.0254 0.5 0 7.756 6.244 14 14 14s14-6.244 14-14c0-0.169-0.02-0.333-0.025-0.5-0.264 7.521-6.388 13.5-13.975 13.5-7.5872 0-13.711-5.979-13.975-13.5z"/>
 <path style="opacity:0.2;fill:#ffffff" d="M 16 4 C 9.352 4 4 9.352 4 16 C 4 16.168838 4.018553 16.3329 4.0253906 16.5 C 4.2877843 10.087544 9.520838 5 16 5 C 22.479162 5 27.712216 10.087544 27.974609 16.5 C 27.981447 16.3329 28 16.168838 28 16 C 28 9.352 22.648 4 16 4 z"/>
</svg>

<svg xmlns="http://www.w3.org/2000/svg" width="32" height="32" version="1"><path fill="#4f4f4f" d="M11.257 22.079c-.75-.04-1.61.304-2.296.99l-2.969 2.97c-1.097 1.096-1.318 2.641-.495 3.464.823.822 2.368.602 3.465-.495l2.97-2.97c1.096-1.096 1.317-2.641.494-3.464-.308-.309-.719-.471-1.169-.495zm9.408 0c-.45.024-.86.186-1.168.495-.823.823-.602 2.368.495 3.464l2.97 2.97c1.096 1.097 2.641 1.318 3.464.495.823-.823.602-2.368-.495-3.465l-2.97-2.97c-.685-.685-1.546-1.029-2.296-.989z"/><path style="fill:#c03120" d="M5 2a5 5 0 0 0-5 5 5 5 0 0 0 5 5 5 5 0 0 0 5-5 5 5 0 0 0-5-5zm22 0a5 5 0 0 0-5 5 5 5 0 0 0 5 5 5 5 0 0 0 5-5 5 5 0 0 0-5-5z"/><path fill="#fff" style="opacity:.1" d="M5 2a5 5 0 0 0-5 5 5 5 0 0 0 .027.516A5 5 0 0 1 5 3a5 5 0 0 1 4.973 4.484A5 5 0 0 0 10 7a5 5 0 0 0-5-5zm22 0a5 5 0 0 0-5 5 5 5 0 0 0 .027.516A5 5 0 0 1 27 3a5 5 0 0 1 4.973 4.484A5 5 0 0 0 32 7a5 5 0 0 0-5-5z"/><path opacity=".2" d="M12.859 24.369a3.35 3.35 0 0 1-.927 1.67l-2.971 2.969c-1.097 1.097-2.64 1.317-3.463.494-.22-.22-.36-.493-.433-.795-.143.686-.014 1.348.433 1.795.823.823 2.366.603 3.463-.494l2.971-2.971c.803-.803 1.129-1.844.927-2.668zm6.205 0c-.201.824.125 1.865.928 2.668l2.969 2.971c1.097 1.097 2.642 1.317 3.465.494.447-.447.576-1.109.433-1.795a1.655 1.655 0 0 1-.433.795c-.823.823-2.368.603-3.465-.494l-2.969-2.969c-.5-.5-.808-1.094-.928-1.67z"/><rect fill="#e74c3c" width="28" height="28" x="2" y="2" rx="14" ry="14"/><rect style="opacity:.2" width="24" height="24" x="-29" y="-28" rx="12" ry="12" transform="matrix(0 -1 -1 0 0 0)"/><path style="opacity:.2;fill:#fff" d="M16 2C8.244 2 2 8.244 2 16c0 .169.02.333.025.5A13.957 13.957 0 0 1 16 3c7.587 0 13.711 5.98 13.975 13.5.005-.167.025-.331.025-.5 0-7.756-6.244-14-14-14z"/><rect style="fill:#f8cac5" width="24" height="24" x="-28" y="-28" rx="12" ry="12" transform="matrix(0 -1 -1 0 0 0)"/><path style="opacity:.7" d="M16 6a1 1 0 0 0-1 1 1 1 0 0 0 1 1 1 1 0 0 0 1-1 1 1 0 0 0-1-1zm5.69 5.006a.727.727 0 0 0-.272.09l-5.99 3.412c-.818.401-1.128 1.453-.797 2.06l2.178 3.721a1.449 1.449 0 0 0 1.968.52c.692-.394.929-1.26.53-1.942l-2.162-3.695 4.994-2.844a.706.706 0 0 0 .263-.973.721.721 0 0 0-.713-.35zM7 15a1 1 0 0 0-1 1 1 1 0 0 0 1 1 1 1 0 0 0 1-1 1 1 0 0 0-1-1zm18 0a1 1 0 0 0-1 1 1 1 0 0 0 1 1 1 1 0 0 0 1-1 1 1 0 0 0-1-1zm-9 9a1 1 0 0 0-1 1 1 1 0 0 0 1 1 1 1 0 0 0 1-1 1 1 0 0 0-1-1z"/><path opacity=".2" d="M2.025 16.5c-.006.167-.025.331-.025.5 0 7.756 6.244 14 14 14s14-6.244 14-14c0-.169-.02-.333-.025-.5C29.711 24.021 23.587 30 16 30S2.289 24.021 2.025 16.5z"/><path style="opacity:.2;fill:#fff" d="M16 4C9.352 4 4 9.352 4 16c0 .169.019.333.025.5A11.962 11.962 0 0 1 16 5c6.48 0 11.712 5.088 11.975 11.5.006-.167.025-.331.025-.5 0-6.648-5.352-12-12-12z"/></svg>
